!!!OTL: Scheidelied.
!!!ARE: Europa, Mitteleuropa, Deutschland
!!!SCT: A0263
!!!TXL: @@GMH
!!!YEM: Copyright 1995, estate of Helmut Schaffrath.
**kern	**text
*M4/2	*
*met(c|)	*
*clefC3	*
*k[]	*
*a:aeo	*
=1	=1
!LO:TX:a:t=aeol.	!
{1e	Der
2e	mon
2e	der
=2	=2
*lig	*
2e	ſtet
2d	.
*Xlig	*
2e	am
1g	höch-
=3-	=3-
.	.
1f	.
4e	.
4d	.
=4	=4
2e	.
2c	-ſten,
2r}	.
{2e	d'ſon
=5	=5
2e	hat
2e	ſich
2e	vn-
1d	-ter-
=6-	=6-
.	.
2.c	-thon,
4B	.
4c	.
4d	.
=7	=7
0e}	}
=8	=8
{1e	Mein
2e	feins
2e	lieb
=9	=9
*lig	*
2e	ligt
2d	.
*Xlig	*
2e	in
1g	nö-
=10-	=10-
.	.
1f	.
4e	.
4d	.
=11	=11
2e	.
2c	-ten,
2r}	.
{2e	ach
=12	=12
2e	Got,
2e	wie
2e	ſols
1d	jm
=13-	=13-
.	.
2.c	gon!
4B	.
4c	.
4d	.
=14	=14
1e	}
2r}	.
{2e	In
=15	=15
*lig	*
2.g	re-
4f	.
2e	.
*Xlig	*
2d	-gen
=16	=16
2c	vnd
2A	in
1G}	wind
=17	=17
{2r	.
2g	wo
2g	ſol
2g	ich
=18	=18
*lig	*
2a	mich
2f	.
*Xlig	*
2g	hin-
1e	-ke-
=19-	=19-
.	.
4d	.
4c	.
4B	.
4A	.
2B	.
=20	=20
1A	-ren,
1r}	.
=21	=21
{2r	.
2A	da
2e	ich
2g	mein
=22	=22
1f	feins
1e	lieb
=23	=23
1A	find?
2r}	.
{2e	da
=24	=24
2g	ich
1e	mein
2.d	feins
=25	=25
.	.
4c/	.
4B	.
4A	.
2B	.
2B	lieb
=26	=26
0A/ll}	find?
==	==
!!!GTL: Abschieds- und Wanderlieder
!! Forster III 1549 No. 18.
!!!ONB: ESAC (Essen Associative Code) Database: ALTDEU
!!!AMT: simple quadruple
!!!AIN: vox
!!!EED: Helmut Schaffrath
!!!EEV: 1.0
!!!RDF**kern: l = terminal long
!!!AMD: Aeolian
!!!URL-scan: https://rosdok.uni-rostock.de/mcrviewer/recordIdentifier/rosdok_ppn738218359/iview2/phys_0412.iview2?x=-495.6391625615763&y=2462.5123152851593&scale=0.4629418472063854&rotation=0&layout=singlePageLayout&logicalDiv=log_0010
!!!ENC: Anna Maria Matuszewska
!!!EEV: 2024/11/03
*-	*-
